X:1144
T:"Ellen O'Grady"   (slipjig)     1144
C:Unattributed
N:The "A" part simply makes no sense to me.
B:O'Neill's Music Of Ireland (The 1850) Lyon & Healy, Chicago, 1903 edition
Z:FROM O'NEILL'S TO NOTEWORTHY, FROM NOTEWORTHY TO ABC, MIDI AND .TXT BY VINCE
BRENNAN July 2003 (HTTP://WWW.SOSYOURMOM.COM)
I:abc2nwc
M:9/8
L:1/8
K:A
eaa ef=g fed|eaa ef=g f2d|eaa ef=g fed|=gfg ecA Bcd:|
B|e2e Bcd cBA|e2e Bcd c2A|e2e Bcd cBA|agf ecA Bcd|
e2d Bcd cBA|e2e Bcd c2A|efg agf edc|fef B2c d2|]
